!! 00013] TT[TB
!! Zh. Ch. 1-3166, 590615)   , J 3484)
!!!OTL: Cai mian hua, vgl. Kopie)
!!!ARE: Asia, China, Shanxi, Zuoqian
!! Ethnic Group: Han
!! MM, !
!!!SCT: C0642
!!!YEM: Copyright 1995, estate of Helmut Schaffrath.
**kern
*ICvox
*Ivox
*M2/4
*k[]
*C:
{4a
8e
8g
=1
4d
8d
8e
=2
[4g
8.g]
16cc
=3
8a
8f
8e
8d
=4
4.c
8d}
=5
{4e
8g
8cc
=6
8a
8f
8e
8d
=7
2c}
=8
{8e
8A
8c
16c
16d
=9
8.e
16f
8e
8d
=10
8c
8B
8A
8cc
=11
8a
8f
8e
8d}
=12
{8.c
16B
8A
8G
=13
4e
8g
8d
=14
8.c
16B
8A
8c
=15
2G}
=16
{8.e
16e
8g
8cc
=17
8a
8f
8e
8d}
=18
{8.c
16B
8A
8G
=19
4e
8g
8d
=20
8.c
16B
8A
8c
=21
2G}
==
!!!AGN: Xiaodiao, Cai mianhua. Biao siqing
!! DOUBLETTE VON CUT 3
!!    Kein Grundton angegeben. Vorspiel weggelassen.Doppelt in C0640
!!!ONB: ESAC (Essen Associative Code) Database: CHINA
!!!AMT: simple duple
!!!AIN: vox
!!!EED: Helmut Schaffrath
!!!EEV: 1.0
*-
